X: 1
T: CONSTANT BILLY
S: MDT
O: Headington
P: A.(A2B2)4
Q:3/8=116
B: Morris Ring
Z: 2005 John Chambers <jc@trillian.mit.edu>
M: 6/8
L: 1/8
K: A
P: A
|: E | A>ce cBA | dcd  BGE | c>BA FGA | EFG  A2 :|
P: B
|: A | cde  fdc | B>cd ecA | cde  fdc | B>cd e3  |
       e>de cAc | d>cd BGE | cBA  FGA | EFG  A2 :|
